X:1
T:Title
%%score { ( 1 3 ) | ( 2 4 5 ) }
L:1/8
Q:1/4=100
M:4/4
K:Ab
V:1 treble nm="Grand Piano"
V:3 treble 
V:2 bass 
V:4 bass 
V:5 bass 
V:1
 z2 [CE]2 [B,E]2 [CE]2 | z2 B2[K:bass][K:treble] z4 | [A,CA]2 [A,DF]2 [A,CE]2 [A,CE]2 | %3
 [A,DF]2 .[B,FB]2 [B,EG]2 E-[EB] | [Ec]2 c-[F,=Dc] [EB]2 [CE]2 | [EG]2 F2 [G,B,E]4 | %6
 z2 [A,CE]2 [G,B,E]2 [A,CE]2 | z2 B2[K:bass][K:treble] z4 | [A,CA]2 [A,DF]2 [A,CE]2 [A,CE]2 | %9
 [A,DF]2 .[B,FB]2 [B,EG]2 E-[EB] | [Ec]2 c-[F,=Dc] [EB]2 [CE]2 | [EG]2 F2 [G,B,E]4 | %12
 z2 [G,B,E]2 [A,EA]2 .[CEG]2 | [A,DF]2 [A,DF]2 [DFB]2 [CFc]2 | z2 c2 z4 | z4 z2 G2 | [CA]6 z2 |] %17
V:2
 z2 [A,,A,]2 [E,G,]2 [A,,A,]2 | [A,E]2 .[E,G,E]2 C,2 z D | F,2 D,2 A,,2 A,,2 | %3
 D,2 z A E,D,C,[B,,G,] | [A,,A,]2 .[A,,E,]2 [G,,G,]2 z F | z2 =D2 z4 | z2 A,,2 E,2 A,,2 | %7
 [A,E]2 .[E,G,E]2 C,2 z D | F,2 D,2 A,,2 A,,2 | D,2 z A E,D,C,[B,,G,] | %10
 [A,,A,]2 .[A,,E,]2 [G,,G,]2 z F | z2 =D2 z4 | z2 E,D, C,2 z B, | D,2 D,C, B,,2 =A,,2 | %14
 [B,,B,]2 .[F,=A,F]2 [B,,F,]4 | z2 [D,D]2 [E,CE]2 .[E,B,E]2 | [A,,A,]6 z2 |] %17
V:3
 x8 | c2 z[K:bass] D,[K:treble] [A,EA]2 .[B,EG]2 | x8 | z4 z2 .[A,A]2 | z2 .C2 z4 | B,4 z4 | x8 | %7
 c2 z[K:bass] D,[K:treble] [A,EA]2 .[B,EG]2 | x8 | z4 z2 .[A,A]2 | z2 .C2 z4 | B,4 z4 | x8 | x8 | %14
 [Fd]2 z E [DB]4 | z2 [FB]2 A2 z D | x8 |] %17
V:4
 x8 | z4 z2 E,2 | x8 | z2 D,2 z4 | z4 z2 A,,2 | z2 z A, E,4 | x8 | z4 z2 E,2 | x8 | z2 D,2 z4 | %10
 z4 z2 A,,2 | z2 z A, E,4 | z4 z2 C,2 | x8 | x8 | x8 | x8 |] %17
V:5
 x8 | x8 | x8 | x8 | x8 | B,,4 z4 | x8 | x8 | x8 | x8 | x8 | B,,4 z4 | x8 | x8 | x8 | x8 | x8 |] %17

